icons/line/fast-forward.svg

<svg width="24" height="24" viewBox="0 0 24 24" fill="none" xmlns="http://www.w3.org/2000/svg">
<path d="M13 12L5.8 17.4C5.47038 17.6472 5 17.412 5 17V7C5 6.58798 5.47038 6.35279 5.8 6.6L13 12ZM13 12V7C13 6.58798 13.4704 6.35279 13.8 6.6L20.4667 11.6C20.7333 11.8 20.7333 12.2 20.4667 12.4L13.8 17.4C13.4704 17.6472 13 17.412 13 17V12Z" stroke="currentColor" stroke-width="2" stroke-linecap="round" stroke-linejoin="round"/>
</svg>

<svg width="24" height="24" fill="none" xmlns="http://www.w3.org/2000/svg"><path d="M13 12l-7.2 5.4A.5.5 0 015 17V7a.5.5 0 01.8-.4L13 12zm0 0V7a.5.5 0 01.8-.4l6.667 5a.5.5 0 010 .8l-6.667 5a.5.5 0 01-.8-.4v-5z" stroke="currentColor" stroke-width="2" stroke-linecap="round" stroke-linejoin="round"/></svg>
